X: 39
T:Shepherd's song
M:4/4
L:1/8
C:anon.
O:Finland
Z:Transcribed by Frank Nordberg - http://www.musicaviva.com
K:Dm
d2d2AA A>B|cc cdA2A2|GG G>D FF F>G|AG GFD2D2|
dd dA cc cd|ed dcA2A2|GG GD FF FG|AG GFD2D2|]
W:
W: From "Falaleiro" http://home.t-online.de/home/pheld/homepage.htm

